src/assets/images/mobile/SearchInfo.svg

<svg width="88" height="64" viewBox="0 0 88 64" fill="none" xmlns="http://www.w3.org/2000/svg">
<path d="M6.67473 5.34971C6.89888 4.20414 8.43993 3.97934 8.982 5.01313C9.37765 5.7677 8.909 6.68688 8.06592 6.80986C7.22283 6.93285 6.51113 6.18586 6.67473 5.34971Z" fill="#4B4B4B" stroke="black"/>
<mask id="path-2-inside-1_209_4969" fill="white">
<path d="M0 18.306C0 10.7737 6.10614 4.66758 13.6384 4.66758H18.694C26.2263 4.66758 32.3324 10.7737 32.3324 18.306C32.3324 25.8383 26.2263 31.9445 18.694 31.9445H13.6384C6.10614 31.9445 0 25.8383 0 18.306Z"/>
</mask>
<path d="M0 18.306C0 10.7737 6.10614 4.66758 13.6384 4.66758H18.694C26.2263 4.66758 32.3324 10.7737 32.3324 18.306C32.3324 25.8383 26.2263 31.9445 18.694 31.9445H13.6384C6.10614 31.9445 0 25.8383 0 18.306Z" fill="url(#paint0_linear_209_4969)"/>
<path d="M13.6384 5.66758H18.694V3.66758H13.6384V5.66758ZM18.694 30.9445H13.6384V32.9445H18.694V30.9445ZM13.6384 30.9445C6.65842 30.9445 1 25.286 1 18.306H-1C-1 26.3906 5.55385 32.9445 13.6384 32.9445V30.9445ZM31.3324 18.306C31.3324 25.286 25.674 30.9445 18.694 30.9445V32.9445C26.7786 32.9445 33.3324 26.3906 33.3324 18.306H31.3324ZM18.694 5.66758C25.674 5.66758 31.3324 11.326 31.3324 18.306H33.3324C33.3324 10.2214 26.7786 3.66758 18.694 3.66758V5.66758ZM13.6384 3.66758C5.55386 3.66758 -1 10.2214 -1 18.306H1C1 11.326 6.65842 5.66758 13.6384 5.66758V3.66758Z" fill="black" mask="url(#path-2-inside-1_209_4969)"/>
<path d="M28.26 6.03383C29.5745 5.78956 30.5276 7.25718 29.7698 8.35872L28.6036 10.0541C27.9979 10.9346 26.6919 10.9172 26.1098 10.0209L25.2529 8.70151C24.6708 7.80521 25.1861 6.60503 26.2368 6.40977L28.26 6.03383Z" fill="#B6ACAC" stroke="black"/>
<ellipse cx="10.1849" cy="14.8662" rx="0.632473" ry="0.660897" transform="rotate(24.984 10.1849 14.8662)" fill="#171515"/>
<circle cx="20.7668" cy="16.4344" r="1.43438" fill="#171515"/>
<g filter="url(#filter0_i_209_4969)">
<rect x="20.2582" y="3.68051" width="13.7643" height="4.93645" rx="2.46823" transform="rotate(36.906 20.2582 3.68051)" fill="#C4C4C4"/>
</g>
<rect x="20.3577" y="4.38057" width="12.7643" height="3.93645" rx="1.96823" transform="rotate(36.906 20.3577 4.38057)" stroke="black"/>
<circle cx="20.3629" cy="7.79573" r="0.717188" transform="rotate(-22.4897 20.3629 7.79573)" fill="#171515"/>
<ellipse cx="23.0289" cy="7.98567" rx="0.717188" ry="0.478125" transform="rotate(-22.4897 23.0289 7.98567)" fill="#171515"/>
<circle cx="25.1012" cy="10.4913" r="1.19531" transform="rotate(-22.4897 25.1012 10.4913)" fill="#171515"/>
<circle cx="28.5903" cy="12.6692" r="0.717188" transform="rotate(-22.4897 28.5903 12.6692)" fill="#171515"/>
<circle cx="15.0232" cy="23.6907" r="5.19074" fill="url(#paint1_linear_209_4969)" stroke="black"/>
<circle cx="12.7668" cy="23.4344" r="1.43438" fill="#171515"/>
<ellipse cx="17.1849" cy="23.8662" rx="0.632473" ry="0.660897" transform="rotate(24.984 17.1849 23.8662)" fill="#171515"/>
<g clip-path="url(#clip0_209_4969)">
<path d="M34 53L47.435 43.2582L34 53ZM56.8286 48.392C55.007 48.1442 53.2497 47.5562 51.6572 46.6613C50.0648 45.7665 48.6683 44.5824 47.5475 43.1766C46.4267 41.7709 45.6036 40.1711 45.1251 38.4685C44.6466 36.7659 44.5221 34.9938 44.7588 33.2536C44.9955 31.5133 45.5886 29.8389 46.5044 28.3259C47.4202 26.8129 48.6407 25.491 50.0961 24.4356C51.5516 23.3802 53.2136 22.612 54.9872 22.175C56.7608 21.7379 58.6113 21.6404 60.433 21.8881C64.112 22.3885 67.4506 24.2645 69.7141 27.1035C71.9776 29.9425 72.9808 33.5119 72.5028 37.0265C72.0248 40.5412 70.1049 43.7131 67.1655 45.8445C64.226 47.9759 60.5077 48.8923 56.8286 48.392Z" stroke="#D5D5D5" stroke-width="2" stroke-linecap="round" stroke-linejoin="round"/>
<g opacity="0.37">
<ellipse cx="54.4281" cy="32.6978" rx="5.39541" ry="5.24231" transform="rotate(26.3505 54.4281 32.6978)" fill="#6FB5D2"/>
<ellipse cx="63.5327" cy="37.2076" rx="5.39544" ry="5.24232" transform="rotate(26.3505 63.5327 37.2076)" fill="#6FB5D2"/>
<ellipse cx="52.5643" cy="39.1443" rx="3.85387" ry="3.74451" transform="rotate(26.3505 52.5643 39.1443)" fill="#6FB5D2"/>
<ellipse cx="59.22" cy="42.4411" rx="3.85389" ry="3.74451" transform="rotate(26.3505 59.22 42.4411)" fill="#6FB5D2"/>
<rect x="56.1816" y="33.2624" width="5.67573" height="6.33163" transform="rotate(26.3505 56.1816 33.2624)" fill="#6FB5D2"/>
</g>
<g opacity="0.55">
<ellipse cx="55.0076" cy="33.6513" rx="4.49486" ry="4.28047" transform="rotate(26.3505 55.0076 33.6513)" fill="#6FB5D2"/>
<ellipse cx="62.5925" cy="37.4083" rx="4.49485" ry="4.28047" transform="rotate(26.3505 62.5925 37.4083)" fill="#6FB5D2"/>
<ellipse cx="53.5035" cy="38.9238" rx="3.21059" ry="3.05748" transform="rotate(26.3505 53.5035 38.9238)" fill="#6FB5D2"/>
<ellipse cx="59.0483" cy="41.6702" rx="3.2106" ry="3.05748" transform="rotate(26.3505 59.0483 41.6702)" fill="#6FB5D2"/>
<rect x="56.4665" y="34.1256" width="4.72832" height="5.16991" transform="rotate(26.3505 56.4665 34.1256)" fill="#6FB5D2"/>
</g>
<ellipse cx="55.7015" cy="34.3737" rx="3.59425" ry="3.37262" transform="rotate(26.3505 55.7015 34.3737)" fill="#7FDEE4"/>
<ellipse cx="61.7667" cy="37.378" rx="3.59425" ry="3.37262" transform="rotate(26.3505 61.7667 37.378)" fill="#7FDEE4"/>
<ellipse cx="54.5268" cy="38.5332" rx="2.56732" ry="2.40901" transform="rotate(26.3505 54.5268 38.5332)" fill="#7FDEE4"/>
<ellipse cx="58.9606" cy="40.7294" rx="2.56732" ry="2.40901" transform="rotate(26.3505 58.9606 40.7294)" fill="#7FDEE4"/>
<rect x="56.8668" y="34.7555" width="3.781" height="4.07343" transform="rotate(26.3505 56.8668 34.7555)" fill="#7FDEE4"/>
<path d="M62.7822 31.2695C63.2685 31.1376 63.6619 30.9287 63.9623 30.6427C64.2683 30.3594 64.4981 30.0626 64.6518 29.7522C64.8248 29.4031 64.9023 29.0653 64.8845 28.739C64.875 28.4099 64.831 28.1086 64.7525 27.835C64.7216 27.7024 64.7418 27.564 64.8132 27.4199C64.8873 27.2703 65.0058 27.1357 65.1685 27.0161C65.334 26.891 65.5176 26.7922 65.7192 26.7195C65.9264 26.6496 66.1406 26.6142 66.3619 26.6134C66.5832 26.6125 66.7908 26.6602 66.9848 26.7562C67.2009 26.8633 67.3454 27.0246 67.4181 27.24C67.4936 27.45 67.5249 27.6794 67.512 27.9284C67.4991 28.1774 67.4544 28.4279 67.3778 28.6799C67.3041 28.9263 67.2233 29.1382 67.1354 29.3156C66.9488 29.6925 66.7038 30.0198 66.4006 30.2975C66.0946 30.5808 65.7525 30.8186 65.3743 31.0108C65.0016 31.2058 64.6025 31.3567 64.177 31.4634C63.7487 31.5756 63.3188 31.6492 62.8875 31.684L62.7822 31.2695Z" fill="#7FDEE4"/>
<path d="M59.4756 29.614C59.2858 29.1473 59.2136 28.7077 59.2591 28.2954C59.299 27.8804 59.3959 27.5177 59.5496 27.2073C59.7226 26.8582 59.9442 26.5918 60.2146 26.4082C60.4822 26.2164 60.7486 26.0688 61.0137 25.9654C61.138 25.9097 61.2358 25.8097 61.3072 25.6656C61.3813 25.516 61.4166 25.3402 61.4131 25.1383C61.4123 24.9309 61.3797 24.7249 61.3153 24.5205C61.2454 24.3133 61.1437 24.1214 61.0103 23.9449C60.8769 23.7684 60.7132 23.6321 60.5192 23.536C60.303 23.4289 60.0872 23.4118 59.8717 23.4845C59.659 23.5517 59.4575 23.6658 59.2673 23.827C59.077 23.9881 58.9049 24.1754 58.7508 24.389C58.5994 24.597 58.4798 24.7897 58.392 24.9671C58.2053 25.3439 58.0933 25.7371 58.0562 26.1466C58.0162 26.5617 58.0344 26.9779 58.1106 27.3953C58.1813 27.8099 58.3032 28.2188 58.4762 28.622C58.6464 29.0307 58.8484 29.4172 59.0821 29.7814L59.4756 29.614Z" fill="#7FDEE4"/>
<circle cx="35.6908" cy="50.6908" r="5.19074" transform="rotate(-130.429 35.6908 50.6908)" fill="url(#paint2_linear_209_4969)" stroke="black"/>
<line x1="0.5" y1="-0.5" x2="3.01742" y2="-0.5" transform="matrix(-0.96947 -0.245212 0.31141 -0.950276 38.41 54.8625)" stroke="black" stroke-linecap="round"/>
<line x1="0.5" y1="-0.5" x2="3.01742" y2="-0.5" transform="matrix(-0.96947 -0.245212 0.31141 -0.950276 40.41 52.8625)" stroke="black" stroke-linecap="round"/>
<line x1="0.5" y1="-0.5" x2="3.01742" y2="-0.5" transform="matrix(-0.96947 -0.245212 0.31141 -0.950276 41.41 50.8625)" stroke="black" stroke-linecap="round"/>
</g>
<defs>
<filter id="filter0_i_209_4969" x="18.2812" y="4.66797" width="11.9957" height="14.2379" filterUnits="userSpaceOnUse" color-interpolation-filters="sRGB">
<feFlood flood-opacity="0" result="BackgroundImageFix"/>
<feBlend mode="normal" in="SourceGraphic" in2="BackgroundImageFix" result="shape"/>
<feColorMatrix in="SourceAlpha" type="matrix" values="0 0 0 0 0 0 0 0 0 0 0 0 0 0 0 0 0 0 127 0" result="hardAlpha"/>
<feOffset dy="4"/>
<feGaussianBlur stdDeviation="2"/>
<feComposite in2="hardAlpha" operator="arithmetic" k2="-1" k3="1"/>
<feColorMatrix type="matrix" values="0 0 0 0 0 0 0 0 0 0 0 0 0 0 0 0 0 0 0.25 0"/>
<feBlend mode="normal" in2="shape" result="effect1_innerShadow_209_4969"/>
</filter>
<linearGradient id="paint0_linear_209_4969" x1="1.89693" y1="11.6214" x2="39.0413" y2="27.7091" gradientUnits="userSpaceOnUse">
<stop stop-color="#BF9393"/>
<stop offset="1" stop-color="#323841"/>
</linearGradient>
<linearGradient id="paint1_linear_209_4969" x1="15.0232" y1="18" x2="15.0232" y2="29.3815" gradientUnits="userSpaceOnUse">
<stop stop-color="#8B7174"/>
<stop offset="1" stop-color="#443C3D" stop-opacity="0.7"/>
</linearGradient>
<linearGradient id="paint2_linear_209_4969" x1="35.6908" y1="45" x2="35.6908" y2="56.3815" gradientUnits="userSpaceOnUse">
<stop stop-color="#8B7174"/>
<stop offset="1" stop-color="#443C3D"/>
</linearGradient>
<clipPath id="clip0_209_4969">
<rect width="52.4802" height="52.4802" fill="white" transform="translate(87.0733 11.0718) rotate(97.7443)"/>
</clipPath>
</defs>
</svg>

<svg width="88" height="64" fill="none" xmlns="http://www.w3.org/2000/svg"><path d="M6.675 5.35c.224-1.146 1.765-1.37 2.307-.337a1.236 1.236 0 1 1-2.307.337z" fill="#4B4B4B" stroke="#000"/><mask id="b" fill="#fff"><path d="M0 18.306C0 10.774 6.106 4.668 13.638 4.668h5.056c7.532 0 13.638 6.106 13.638 13.638s-6.106 13.639-13.638 13.639h-5.056C6.106 31.945 0 25.838 0 18.306z"/></mask><path d="M0 18.306C0 10.774 6.106 4.668 13.638 4.668h5.056c7.532 0 13.638 6.106 13.638 13.638s-6.106 13.639-13.638 13.639h-5.056C6.106 31.945 0 25.838 0 18.306z" fill="url(#a)"/><path d="M13.638 5.668h5.056v-2h-5.056v2zm5.056 25.276h-5.056v2h5.056v-2zm-5.056 0C6.658 30.945 1 25.287 1 18.306h-2c0 8.085 6.554 14.638 14.638 14.638v-2zm17.694-12.638c0 6.98-5.658 12.639-12.638 12.639v2c8.085 0 14.638-6.554 14.638-14.639h-2zM18.694 5.668c6.98 0 12.638 5.658 12.638 12.638h2c0-8.085-6.553-14.638-14.638-14.638v2zm-5.056-2C5.554 3.668-1 10.22-1 18.306h2c0-6.98 5.658-12.638 12.638-12.638v-2z" fill="#000" mask="url(#b)"/><path d="M28.26 6.034c1.314-.244 2.268 1.223 1.51 2.325l-1.166 1.695a1.5 1.5 0 0 1-2.494-.033l-.857-1.32a1.5 1.5 0 0 1 .984-2.291l2.023-.376z" fill="#B6ACAC" stroke="#000"/><ellipse cx="10.185" cy="14.866" rx=".632" ry=".661" transform="rotate(24.984 10.185 14.866)" fill="#171515"/><circle cx="20.767" cy="16.434" r="1.434" fill="#171515"/><g filter="url(#c)"><rect x="20.258" y="3.681" width="13.764" height="4.936" rx="2.468" transform="rotate(36.906 20.258 3.68)" fill="#C4C4C4"/></g><rect x="20.358" y="4.381" width="12.764" height="3.936" rx="1.968" transform="rotate(36.906 20.358 4.38)" stroke="#000"/><circle cx="20.363" cy="7.796" r=".717" transform="rotate(-22.49 20.363 7.796)" fill="#171515"/><ellipse cx="23.029" cy="7.986" rx=".717" ry=".478" transform="rotate(-22.49 23.029 7.986)" fill="#171515"/><circle cx="25.101" cy="10.491" r="1.195" transform="rotate(-22.49 25.101 10.491)" fill="#171515"/><circle cx="28.59" cy="12.669" r=".717" transform="rotate(-22.49 28.59 12.67)" fill="#171515"/><circle cx="15.023" cy="23.691" r="5.191" fill="url(#d)" stroke="#000"/><circle cx="12.767" cy="23.434" r="1.434" fill="#171515"/><ellipse cx="17.185" cy="23.866" rx=".632" ry=".661" transform="rotate(24.984 17.185 23.866)" fill="#171515"/><g clip-path="url(#e)"><path d="m34 53 13.435-9.742L34 53zm22.829-4.608a14.571 14.571 0 0 1-5.172-1.73 14.06 14.06 0 0 1-4.11-3.485 13.35 13.35 0 0 1-2.422-4.709 12.856 12.856 0 0 1-.366-5.214c.236-1.74.83-3.415 1.745-4.928a13.352 13.352 0 0 1 3.592-3.89 14.059 14.059 0 0 1 4.891-2.261 14.571 14.571 0 0 1 5.446-.287c3.679.5 7.018 2.377 9.281 5.215 2.264 2.84 3.267 6.409 2.789 9.923-.478 3.515-2.398 6.687-5.338 8.818-2.939 2.132-6.657 3.048-10.336 2.548z" stroke="#D5D5D5" stroke-width="2" stroke-linecap="round" stroke-linejoin="round"/><g opacity=".37" fill="#6FB5D2"><ellipse cx="54.428" cy="32.698" rx="5.395" ry="5.242" transform="rotate(26.35 54.428 32.698)"/><ellipse cx="63.533" cy="37.208" rx="5.395" ry="5.242" transform="rotate(26.35 63.533 37.208)"/><ellipse cx="52.564" cy="39.144" rx="3.854" ry="3.745" transform="rotate(26.35 52.564 39.144)"/><ellipse cx="59.22" cy="42.441" rx="3.854" ry="3.745" transform="rotate(26.35 59.22 42.441)"/><path d="m56.182 33.262 5.086 2.52-2.81 5.674-5.086-2.52z"/></g><g opacity=".55" fill="#6FB5D2"><ellipse cx="55.008" cy="33.651" rx="4.495" ry="4.28" transform="rotate(26.35 55.008 33.651)"/><ellipse cx="62.593" cy="37.408" rx="4.495" ry="4.28" transform="rotate(26.35 62.593 37.408)"/><ellipse cx="53.504" cy="38.924" rx="3.211" ry="3.057" transform="rotate(26.35 53.504 38.924)"/><ellipse cx="59.048" cy="41.67" rx="3.211" ry="3.057" transform="rotate(26.35 59.048 41.67)"/><path d="m56.467 34.126 4.237 2.099-2.295 4.633-4.237-2.099z"/></g><ellipse cx="55.702" cy="34.374" rx="3.594" ry="3.373" transform="rotate(26.35 55.702 34.374)" fill="#7FDEE4"/><ellipse cx="61.767" cy="37.378" rx="3.594" ry="3.373" transform="rotate(26.35 61.767 37.378)" fill="#7FDEE4"/><ellipse cx="54.527" cy="38.533" rx="2.567" ry="2.409" transform="rotate(26.35 54.527 38.533)" fill="#7FDEE4"/><ellipse cx="58.961" cy="40.729" rx="2.567" ry="2.409" transform="rotate(26.35 58.96 40.73)" fill="#7FDEE4"/><path fill="#7FDEE4" d="m56.867 34.755 3.388 1.678-1.808 3.65-3.388-1.678zM62.782 31.27c.487-.132.88-.341 1.18-.627.306-.284.536-.58.69-.89.173-.35.25-.688.233-1.014-.01-.33-.054-.63-.133-.904a.607.607 0 0 1 .061-.415 1.13 1.13 0 0 1 .355-.404c.166-.125.35-.224.551-.296a2.02 2.02 0 0 1 .643-.107c.221 0 .429.047.623.143.216.107.36.269.433.484.076.21.107.44.094.688-.013.25-.058.5-.134.752a4.066 4.066 0 0 1-.243.636 3.31 3.31 0 0 1-.734.982 4.51 4.51 0 0 1-1.027.713 5.411 5.411 0 0 1-1.197.452 7.443 7.443 0 0 1-1.29.221l-.105-.415zM59.476 29.614c-.19-.467-.262-.906-.217-1.319.04-.415.137-.777.29-1.088.174-.349.395-.615.666-.799.267-.192.534-.34.799-.443a.606.606 0 0 0 .293-.3c.074-.149.11-.325.106-.527 0-.207-.033-.413-.098-.618a2.02 2.02 0 0 0-.305-.575 1.372 1.372 0 0 0-.49-.409.818.818 0 0 0-.648-.052 1.748 1.748 0 0 0-.605.343c-.19.161-.362.348-.516.562-.152.208-.271.4-.359.578-.187.377-.299.77-.336 1.18-.04.415-.022.83.055 1.248.07.415.192.824.365 1.227.17.409.372.795.606 1.16l.394-.168z"/><circle cx="35.691" cy="50.691" r="5.191" transform="rotate(-130.429 35.69 50.69)" fill="url(#f)" stroke="#000"/><path transform="matrix(-.96947 -.24521 .31141 -.95028 38.41 54.862)" stroke="#000" stroke-linecap="round" d="M.5-.5h2.517"/><path transform="matrix(-.96947 -.24521 .31141 -.95028 40.41 52.862)" stroke="#000" stroke-linecap="round" d="M.5-.5h2.517"/><path transform="matrix(-.96947 -.24521 .31141 -.95028 41.41 50.862)" stroke="#000" stroke-linecap="round" d="M.5-.5h2.517"/></g><defs><linearGradient id="a" x1="1.897" y1="11.621" x2="39.041" y2="27.709" gradientUnits="userSpaceOnUse"><stop stop-color="#BF9393"/><stop offset="1" stop-color="#323841"/></linearGradient><linearGradient id="d" x1="15.023" y1="18" x2="15.023" y2="29.381" gradientUnits="userSpaceOnUse"><stop stop-color="#8B7174"/><stop offset="1" stop-color="#443C3D" stop-opacity=".7"/></linearGradient><linearGradient id="f" x1="35.691" y1="45" x2="35.691" y2="56.382" gradientUnits="userSpaceOnUse"><stop stop-color="#8B7174"/><stop offset="1" stop-color="#443C3D"/></linearGradient><clipPath id="e"><path fill="#fff" transform="rotate(97.744 38.703 43.553)" d="M0 0h52.48v52.48H0z"/></clipPath><filter id="c" x="18.281" y="4.668" width="11.996" height="14.238" filterUnits="userSpaceOnUse" color-interpolation-filters="sRGB"><feFlood flood-opacity="0" result="BackgroundImageFix"/><feBlend in="SourceGraphic" in2="BackgroundImageFix" result="shape"/><feColorMatrix in="SourceAlpha" values="0 0 0 0 0 0 0 0 0 0 0 0 0 0 0 0 0 0 127 0" result="hardAlpha"/><feOffset dy="4"/><feGaussianBlur stdDeviation="2"/><feComposite in2="hardAlpha" operator="arithmetic" k2="-1" k3="1"/><feColorMatrix values="0 0 0 0 0 0 0 0 0 0 0 0 0 0 0 0 0 0 0.25 0"/><feBlend in2="shape" result="effect1_innerShadow_209_4969"/></filter></defs></svg>
